src/lib/packages/icons/src/assets/line/shopping-basket-arrow-down.svg

<svg width="24" height="24" viewBox="0 0 24 24" fill="none" xmlns="http://www.w3.org/2000/svg">
<path d="M21.75 9C21.75 7.483 20.517 6.25 19 6.25H16.896L14.734 2.616C14.522 2.262 14.0621 2.142 13.7061 2.355C13.3511 2.567 13.2329 3.027 13.4449 3.383L15.15 6.24899H9L10.731 3.387C10.946 3.033 10.832 2.572 10.478 2.357C10.122 2.142 9.662 2.256 9.448 2.61L7.24695 6.248H5C3.483 6.248 2.25 7.481 2.25 8.998C2.25 10.087 2.89101 11.022 3.81201 11.467L4.50195 18.371C4.72895 20.643 5.94903 21.748 8.23303 21.748H15.803C18.087 21.748 19.3081 20.644 19.5341 18.371L20.226 11.446C21.126 10.995 21.75 10.073 21.75 9ZM5 7.75H19C19.689 7.75 20.25 8.311 20.25 9C20.25 9.689 19.689 10.25 19 10.25H5C4.311 10.25 3.75 9.689 3.75 9C3.75 8.311 4.311 7.75 5 7.75ZM18.043 18.224C17.914 19.507 17.507 20.25 15.804 20.25H8.23401C6.52201 20.25 6.127 19.538 5.995 18.224L5.34802 11.75H18.691L18.043 18.224ZM14.03 15.97C14.323 16.263 14.323 16.738 14.03 17.031L12.53 18.531C12.461 18.6 12.378 18.655 12.286 18.693C12.194 18.731 12.097 18.751 11.999 18.751C11.901 18.751 11.804 18.731 11.712 18.693C11.62 18.655 11.537 18.6 11.468 18.531L9.96802 17.031C9.67502 16.738 9.67502 16.263 9.96802 15.97C10.261 15.677 10.7361 15.677 11.0291 15.97L11.249 16.19V14C11.249 13.586 11.585 13.25 11.999 13.25C12.413 13.25 12.749 13.586 12.749 14V16.189L12.969 15.969C13.263 15.677 13.737 15.677 14.03 15.97Z" fill="currentColor"/>
</svg>

<svg xmlns="http://www.w3.org/2000/svg" width="24" height="24" fill="none"><path fill="currentColor" d="M21.75 9A2.752 2.752 0 0 0 19 6.25h-2.104l-2.162-3.634a.75.75 0 0 0-1.29.767l1.706 2.866H9l1.731-2.862a.75.75 0 0 0-1.283-.777L7.247 6.248H5a2.752 2.752 0 0 0-2.75 2.75c0 1.089.641 2.024 1.562 2.469l.69 6.904c.227 2.272 1.447 3.377 3.731 3.377h7.57c2.284 0 3.505-1.104 3.731-3.377l.692-6.925A2.738 2.738 0 0 0 21.75 9ZM5 7.75h14c.689 0 1.25.561 1.25 1.25s-.561 1.25-1.25 1.25H5c-.689 0-1.25-.561-1.25-1.25S4.311 7.75 5 7.75Zm13.043 10.474c-.129 1.283-.536 2.026-2.239 2.026h-7.57c-1.712 0-2.107-.712-2.239-2.026l-.647-6.474h13.343l-.648 6.474ZM14.03 15.97a.75.75 0 0 1 0 1.061l-1.5 1.5a.749.749 0 0 1-.818.162.749.749 0 0 1-.244-.162l-1.5-1.5a.75.75 0 1 1 1.061-1.061l.22.22V14a.75.75 0 0 1 1.5 0v2.189l.22-.22a.751.751 0 0 1 1.061.001Z"/></svg>
